X: 10851
M: C|
L: 1/8
K: F#m
uC |\
ug |\
afcf cfaf | egbe gbeg | afcf c(faf) | ecBG AFF |]
g |\
afcf cfaf | gebe gbe(f/g/) | a(gfa) efcf | ecBG AF"_Fine."F "^D.C."|]


